!!!COM: Franz Schubert
!!!OTL: Die schöne Müllerin (D.795)
!!!OMV: Pause
**kern	**dynam
*I"Singstimme	*
*clefG2	*
*k[b-e-]	*
*M4/4	*
*met(c)	*
=1	=1
!LO:TX:a:B:t=Ziemlich geschwind.	!
[4BB- [4F 4B- 4d	.
8.BB-L_ 8.F_ 8.B- 8.d 8.e-	.
16BB-Jk_ 16F_ 16A 16c	.
4BB-^_ 4F_ 4d 4f	.
8BB-L_ 8F_ 8B- 8d	.
8BB-J] 8F]	.
=2	=2
[4BB- [4F 4B- 4d	.
8.BB-L_ 8.F_ 8.B- 8.d 8.e-	.
16BB-Jk_ 16F_ 16A 16c	.
4BB-^_ 4F_ 4d 4f	.
8BB-L_ 8F_ 8B- 8d	.
8BB-J] 8F]	.
=3	=3
[4BB- [4G [4B- [4e- [4g	.
12BB-L_ 12G_ 12B-_ 12e-_ 12g]	.
12BB-_ 12G_ 12B-_ 12e-_ 12f	.
12BB-J] 12G] 12B-] 12e-]	.
[4BB- [4A [4c [4e- [4g	.
12BB-L_ 12A_ 12c_ 12e-_ 12g]	.
12BB-_ 12A_ 12c_ 12e-_ 12f	.
12BB-J] 12A] 12c] 12e-]	.
=4	=4
4BB- [4B- [4d	.
[12DL 12B-_ 12d]	.
12D_ 12B-_ 12e-	.
12DJ] 12B-] 12f	.
2F 2A 2c	.
=5	=5
[4BB- [4F 4B- 4d	.
8.BB-L_ 8.F_ 8.B- 8.d 8.e-	.
16BB-Jk_ 16F_ 16A 16c	.
4BB-^_ 4F_ 4d 4f	.
8BB-L_ 8F_ 8B- 8d	.
8BB-J] 8F]	.
=6	=6
[4BB- [4F 4B- 4d	.
8.BB-L_ 8.F_ 8.B- 8.d 8.e-	.
16BB-Jk_ 16F_ 16A 16c	.
4BB-^_ 4F_ 4d 4f	.
8BB-L_ 8F_ 8B- 8d	.
8BB-J] 8F]	.
=7	=7
[4FF 4F [4B- 4d	.
12FFL_ 12F 12B-_ 12d	.
12FF_ 12G 12B-_ 12e-	.
12FFJ] 12F 12B-] 12d	.
[4FF 4E- [4A 4c	.
12FFL_ 12E- 12A_ 12c	.
12FF_ 12F 12A_ 12d	.
12FFJ] 12E- 12A] 12c	.
=8	=8
2FF 2E- 2F 2A 2c	.
4BB- 4D 4F 4B-	.
4r	.
=9	=9
[4BB- [4F 4B- 4d	.
8.BB-L_ 8.F_ 8.B- 8.d 8.e-	.
16BB-Jk_ 16F_ 16A 16c	.
4BB-^_ 4F_ 4d [4f	p
8BB-L_ 8F_ 8B- 8d 8f]	.
8BB-J] 8F] 8f	.
=10	=10
[4BB- [4F 4B- 4d 4dd	.
8.BB-L_ 8.F_ 8.B- 8.d 8.e- [8.b-	.
16BB-Jk_ 16F_ 16A 16c 16b-]	.
4BB-^_ 4F_ 4d 4f 4dd	.
8BB-L_ 8F_ 8B- 8d 8cc	.
8BB-J] 8F] 8b-	.
=11	=11
[4BB- [4F 4c 4d [4e- 4f [4g 4a	.
12BB-L_ 12F_ 12e-] 12g_	.
24BB-k_ 24F_ [24d [24f 24g]	.
24BB-K_ 24F_ 24d] 24f] [24a	.
12BB-J_ 12F_ 12c 12e- 12a]	.
2BB-] 2F] 2B- 2d 2b-	.
=12	=12
[4BB- [4F 4B- 4d	.
8.BB-L_ 8.F_ 8.B- 8.d 8.e-	.
16BB-Jk_ 16F_ 16A 16c	.
4BB-^_ 4F_ 4d 4f	.
8BB-L_ 8F_ 8B- 8d 8f	.
8BB-J] 8F] 8f	.
=13	=13
[4BB- [4F 4B- 4d 4dd	.
8.BB-L_ 8.F_ 8.B- 8.d 8.e- [8.b-	.
16BB-Jk_ 16F_ 16A 16c 16b-]	.
4BB-^_ 4F_ 4d 4f 4dd	.
8BB-L_ 8F_ 8B- 8d 8cc	.
8BB-J] 8F] 8b-	.
=14	=14
[4BB- [4F 4c 4d [4e- 4f [4g 4a	.
12BB-L_ 12F_ 12e-] 12g_ 12a 12b-	.
24BB-k_ 24F_ [24d [24f 24g]	.
24BB-K_ 24F_ 24d] 24f] [24a	.
12BB-J_ 12F_ 12c 12e- 12a]	.
4BB-_ 4F_ [4B- [4d 4b-	.
8BB-L_ 8F_ 8B-_ 8d_	.
8BB-J] 8F] 8B-] 8d] 8b-	.
=15	=15
[4C [4En 4B- [4g 4dd	.
8CL_ 8E_ 8c 8g_ 8cc	.
8CJ] 8E] 8d 8g] 8b-	.
[4C [4F [4c 4a	.
8CL_ 8F_ 8B- 8c_ 8b-	.
8CJ] 8F] 8A 8c] 8cc	.
=16	=16
[4C [4En 4B- [4g 4dd	.
8CL_ 8E_ 8c 8g_ 8cc	.
8CJ] 8E] 8d 8g] 8b-	.
[4F [4c 4a	.
4F] 4c]	.
=17	=17
[4BB- [4F 4B- 4d	.
8.BB-L_ 8.F_ 8.B- 8.d 8.e-	.
16BB-Jk_ 16F_ 16A 16c	.
4BB-^_ 4F_ 4d 4f 4dd	.
8BB-L_ 8F_ 8B- 8d [8b-	.
8BB-J] 8F] 8b-]	.
=18	=18
[4BB- [4F 4B- 4d 4f	.
8BB-L_ 8F_ [8B- [8d 8e- 8f	.
16BB-L_ 16F_ 16B-] 16d] [16f	.
16BB-JJ_ 16F_ 16A 16c 16f]	.
4BB-^_ 4F_ 4d 4f [4dd	.
8BB-L_ 8F_ 8B- 8d 8dd]	.
8BB-J] 8F] 8b-	.
=19	=19
[4BB- [4F 4c 4d [4e- 4f [4g 4a	.
12BB-L_ 12F_ 12e-] 12g_	.
24BB-k_ 24F_ [24d [24f 24g]	.
24BB-K_ 24F_ 24d] 24f] [24a	.
12BB-J_ 12F_ 12c 12e- 12a]	.
2BB-] 2F] 2B- 2d 2b-	.
=20	=20
[8GGL [8D [8B- 8b-	.
8GGJ] 8D] 8B-] 8a	.
[8GGL [8D [8B- 8a	.
8GGJ] 8D] 8B-] 8g	.
4GG 4D 4B- 4g	.
4GG 4D 4B- 4g	.
=21	=21
[8GGL [8D [8B- 8b- 8dd	.
8GGJ] 8D] 8B-] 8a 8cc	.
[8GGL [8D [8B- 8a 8cc	.
8GGJ] 8D] 8B-] 8g 8b-	.
4GG 4D 4B- 4g 4b-	.
4GG 4D 4B- 4g 4b-	.
=22	=22
4FF#X 4D 4c 4d 4a	.
[8FF#XL [8D [8c 8e- [8a	.
8FF#J] 8D] 8c] 8d 8a]	.
4DD 4D 4c 4d 4a 4cc	.
[8DDL [8D [8c [8d 8g 8b-	.
8DDJ] 8D] 8c] 8d] 8f#X 8a	.
=23	=23
8.GGL [8.D [8.B- [8.d [8.g [8.b-	.
16AAJk 16D_ 16B-_ 16d_ 16g_ 16b-_	.
8.BB-L 8.D_ 8.B-_ 8.d_ 8.g_ 8.b-_	.
16CJk 16D] 16B-] 16d_ 16g] 16b-]	.
[4D [4A 4d_ [4f#X 4a	.
4D] 4A] 4d] 4f#]	.
=24	=24
[8AAL [8Fn [8c 8a [8cc	.
8AAJ] 8F] 8c] 8g 8cc]	.
[8AAL [8F [8c 8g 8b-	.
8AAJ] 8F] 8c] 8fn 8a	.
[8BB-L [8F [8d [8f [8g	.
8BB-J] 8F] 8d] 8f] 8g] 8dd	.
[8.BB-L [8.F [8.d [8.f [8.g 8.dd	.
16BB-Jk] 16F] 16d] 16f] 16g]	.
=25	=25
[8BBnL [8G [8d [8f [8g	.
8BBJ] 8G] 8d] 8f] 8g] 8bn	.
[8BBnL [8G [8d [8f [8g 8dd	.
8BBJ] 8G] 8d] 8f] 8g] 8ff	.
[8CL [8G [8c [8en [8g 8ff	.
8CJ] 8G] 8c] 8e] 8g] 8een	.
[8GGL [8G [8Bn [8f [8g 8dd	.
8GGJ] 8G] 8B] 8f] 8g] 8een	.
=26	=26
4C 4G 4c 4en 4g [4cc	.
4C 4G 4c 4en 4g 4cc]	.
4C 4G 4c 4e-X 4g	.
4C 4G 4c 4e- 4g	.
=27	=27
[8GGL [8D [8B- 8b- 8dd	.
8GGJ] 8D] 8B-] 8a 8cc	.
[8GGL [8D [8B- 8a 8cc	.
8GGJ] 8D] 8B-] 8g 8b-	.
4GG 4D 4B- 4g 4b-	.
4GG 4D 4B- 4g 4b-	.
=28	=28
4FF#X 4D 4c 4d	.
[8FF#XL [8D [8c 8e- [8a	.
8FF#J] 8D] 8c] 8d 8a]	.
4DD 4D 4c 4e- 4a 4cc	.
[8DDL [8D [8c [8d 8g 8b-	.
8DDJ] 8D] 8c] 8d] 8f#X 8a	.
=29	=29
8.GGL [8.D [8.B- [8.d [8.g [8.b-	.
16AAJk 16D_ 16B-_ 16d_ 16g_ 16b-_	.
8.BB-L 8.D_ 8.B-_ 8.d_ 8.g_ 8.b-_	.
16CJk 16D] 16B-] 16d_ 16g] 16b-]	.
[4D [4A 4d_ [4f#X 4a	.
4D] 4A] 4d] 4f#]	.
=30	=30
[8AAL [8Fn [8c 8a 8cc	.
8AAJ] 8F] 8c] 8g 8b-	.
[8AAL [8F [8c 8g 8b-	.
8AAJ] 8F] 8c] 8fn 8a	.
4BB- 4F 4d 4f 4g	.
4BBn 4F 4d 4f 4g 4dd	.
=31	=31
4C 4c 4f 4a [4ff	.
[8CL [8c [8f [8a 8ff]	.
8CJ] 8c] 8f] 8a]	.
[8CL [8B- [8en [8g	.
8CJ] 8B-] 8e] 8g]	.
[8CL [8B- [8en [8g 8dd	.
8CJ] 8B-] 8e] 8g] 8cc	.
=32	=32
4.FF 4.C 4.A 4.f [4.a	.
8f 8a]	.
[8FFL [8C 8en	.
8FFJ_ 8C_ 8g	.
8FF;L_ 8C_ 8dd	.
8FFJ_ 8C_ 8cc	.
=33	=33
2FF] 2C] 2A 2f 2a	.
4C 4E- 4F 4A 4e- 4f [4a	f
8aL]	.
8aJ	.
=34	=34
4BB- 4D-X 4F 4B- 4d-X 4f 4b-	.
8b-L	.
8b-J	.
[8.AA-XL [8.E- [8.G-X [8.A-X [8.c [8.e- [8.g-X [8.a-X [8.cc	.
16AA-Jk] 16E-] 16G-] 16A-] 16c] 16e-] 16g-] 16a-] 16cc]	.
8b-L	.
8ccJ	.
=35	=35
2D-X 2F 2A-X 2d-X 2f 2a-X 2dd-X	.
[8FFL [8F [8A-X [8d-X 8ff	p
8FFJ_ 8F_ 8A-] 8d-_ 8ee-	.
8FFL_ 8F_ [8An 8d-_ 8dd-X	.
8FFJ] 8F] 8A] 8d-] 8cc	.
=36	=36
[8GG-XL [8D-X [8B- [8d-X 8cc	.
8GG-J_ 8D-_ 8B-_ 8d-_ 8b-	.
8GG-L_ 8D-_ 8B-_ 8d-_ 8b-	.
8GG-J] 8D-] 8B-] 8d-] 8dd-X	.
[8AA-XL [8G-X [8e- [8g-X 8dd-	.
8AA-J_ 8G-_ 8e-_ 8g-_ 8cc	.
8AA-L_ 8G-_ 8e-_ 8g-_ 8cc	.
8AA-J] 8G-_ 8e-] 8g-_ 8ee-	.
=37	=37
[8BB-L 8G-X_ [8d-X 8g-X_ 8ee-	.
8BB-J_ 8G-_ 8d-_ 8g-_ 8dd-X	.
8BB-L_ 8G-_ 8d-_ 8g-_ 8gg-X	.
8BB-J] 8G-_ 8d-] 8g-] 8ff	.
2C 2G-] 2A-X 2e- 2ee-	.
=38	=38
[8FFL [8D-X [8A-X [8d-X 8ff	.
8FFJ_ 8D-_ 8A-] 8d-_ 8ee-	.
8FFL_ 8D-_ [8An 8d-_ 8dd-X	.
8FFJ] 8D-] 8A] 8d-] 8cc	.
[8GG-XL [8D-X [8B- [8d-X 8cc	.
8GG-J_ 8D-_ 8B-_ 8d-_ 8b-	.
8GG-L_ 8D-_ 8B-_ 8d-_ 8b-	.
8GG-J] 8D-] 8B-] 8d-] 8cc	.
=39	=39
[8GG-XL [8E- [8B- [8e- 8cc	.
8GG-J_ 8E-_ 8B-_ 8e-_ 8b-	.
8GG-L_ 8E-_ 8B-_ 8e-_ 8b-	.
8GG-J] 8E-] 8B-] 8e-] 8cc	.
[8GG-XL [8En [8B- [8en 8cc	.
8GG-J_ 8E_ 8B-_ 8e_ 8b-	.
8GG-L_ 8E_ 8B-_ 8e_ 8b-	.
8GG-J] 8E] 8B-] 8e] 8cc	.
=40	=40
2FF 2F 2An 2f 2an	.
[8.G-XL [8.c [8.en 8.cc	.
16G-Jk_ 16c_ 16e_ 16b-	.
8G-L_ 8c_ 8e_ 8b-	.
8G-J] 8c_ 8e] 8cc	.
=41	=41
1F 1c] 1f 1a	.
=42	=42
[4BB- [4F 4B- 4d	.
8.BB-L_ 8.F_ 8.B- 8.d 8.e-	.
16BB-Jk_ 16F_ 16A 16c	.
4BB-^_ 4F_ 4d 4f	.
8BB-L_ 8F_ 8B- 8d	.
8BB-J] 8F]	.
=43	=43
[4BB- [4F 4B- 4d	.
8.BB-L_ 8.F_ 8.B- 8.d 8.e-	.
16BB-Jk_ 16F_ 16A 16c	.
4BB-^_ 4F_ 4d 4f	.
8BB-L_ 8F_ 8B- 8d	.
8BB-J] 8F]	.
=44	=44
[4BB- [4G [4B- [4e- [4g	.
12BB-L_ 12G_ 12B-_ 12e-_ 12g]	.
12BB-_ 12G_ 12B-_ 12e-_ 12f	.
12BB-J_ 12G] 12B-] 12e-]	.
4BB-_ [4A [4c [4e- [4g	.
12BB-L_ 12A_ 12c_ 12e-_ 12g]	.
12BB-_ 12A_ 12c_ 12e-_ 12f	.
12BB-J] 12A] 12c] 12e-]	.
=45	=45
4BB- [4B- [4d	.
[12DL 12B-_ 12d]	.
12D_ 12B-_ 12e-	.
12DJ] 12B-] 12f	.
2F 2A 2c	.
=46	=46
[4BB- [4F 4B- 4d	.
8.BB-L_ 8.F_ 8.B- 8.d 8.e-	.
16BB-Jk_ 16F_ 16A 16c	.
4BB-^_ 4F_ 4d 4f	.
8BB-L_ 8F_ 8B- 8d 8f	.
8BB-J] 8F] 8f	.
=47	=47
[4BB- [4F 4B- 4d 4dd	.
8.BB-L_ 8.F_ 8.B- 8.d 8.e- [8.b-	.
16BB-Jk_ 16F_ 16A 16c 16b-]	.
4BB-^_ 4F_ 4d 4f 4dd	.
8BB-L_ 8F_ 8B- 8d 8cc	.
8BB-J] 8F] 8b-	.
=48	=48
[4BB-^ [4F 4c 4d [4e- 4f [4g 4a	.
12BB-L_ 12F_ 12e-] 12g_	.
24BB-k_ 24F_ [24d [24f 24g]	.
24BB-K_ 24F_ 24d] 24f] [24a	.
12BB-J_ 12F_ 12c 12e- 12a]	.
2BB-] 2F] 2B- 2d 2b-	.
=49	=49
[4BB- [4F 4B- 4d	.
8BB-L_ 8F_ [8B- [8d 8e-	.
16BB-L_ 16F_ 16B-] 16d] [16f	.
16BB-JJ_ 16F_ 16A 16c 16f]	.
4BB-^_ 4F_ 4d [4f	.
8BB-L_ 8F_ 8B- 8d 8f]	.
8BB-J] 8F] 8f	.
=50	=50
[4BB- [4F 4B- 4d 4dd	.
8.BB-L_ 8.F_ 8.B- 8.d 8.e- [8.b-	.
16BB-Jk_ 16F_ 16A 16c 16b-]	.
8BB-^L_ 8F_ [8d [8f 8ff	.
8BB-J_ 8F_ 8d] 8f] 8dd	.
8BB-L_ 8F_ 8B- 8d 8cc	.
8BB-J] 8F] 8b-	.
=51	=51
[4BB-^ [4F 4c 4d [4e- 4f [4g 4a	.
12BB-L_ 12F_ 12e-] 12g_	.
24BB-k_ 24F_ [24d [24f 24g]	.
24BB-K_ 24F_ 24d] 24f] [24a	.
12BB-J_ 12F_ 12c 12e- 12a]	.
4.BB-_ 4.F_ [4.B- [4.d 4.b-	.
8BB-] 8F] 8B-] 8d] 8dd	.
=52	=52
[4D [4F#X 4c [4a 4ee-	.
8DL_ 8F#_ 8d 8a_ 8dd	.
8DJ_ 8F#] 8e- 8a] 8cc	.
4D_ [4G [4d 4b-	.
8DL_ 8G_ 8c 8d_ 8cc	.
8DJ] 8G] 8B- 8d] 8dd	.
=53	=53
[8.DL [8.F#X [8.c [8.a 8.dd	.
16DJk_ 16F#_ 16c] 16a_ 16ee-	.
12DL_ 12F#_ [12d 12a_ 12ee-	.
24Dk_ 24F#_ 24d] 24a_ [24dd	.
24DK_ 24F#_ [24e- 24a_ 24dd]	.
12DJ] 12F#] 12e-] 12a] 12cc	.
[4.G [4.d 4.b-	.
8G] 8d] 8b-	.
=54	=54
4D 4A-X 4Bn 4f 4a-X 4bn	p
8bL	.
8bJ	.
4E- 4A-X 4c 4e- 4a-X 4b 4cc	.
4cc	.
=55	=55
4BBn 4G 4f 4g 4dd	.
8gL	.
8ddJ	.
[8.CL [8.G [8.e- [8.g [8.ee- 8.ff	.
16CJk_ 16G_ 16e-_ 16g_ 16ee-_	.
4C;] 4G] 4e-] 4g] 4ee-]	mf
=56	=56
[4AA-X [4E- 4A-X 4c	.
8.AA-L_ 8.E-_ 8.A-X 8.c 8.d-X	.
16AA-Jk_ 16E-_ 16G 16B-	.
4AA-^_ 4E-_ 4c 4e-	.
8AA-L_ 8E-_ 8A-X 8c	.
8AA-J] 8E-]	.
=57	=57
[4AA-X [4E- 4A-X 4c	.
8AA-L_ 8E-_ [8A-X [8c 8d-X	.
16AA-L_ 16E-_ 16A-] 16c] [16e-	p
16AA-JJ_ 16E-_ 16G 16B- 16e-]	.
4AA-^_ 4E-_ 4c 4e- [4cc	.
8AA-L_ 8E-_ 8A-X 8c 8cc_	.
8AA-J] 8E-] 8cc]	.
=58	=58
[4AA-X [4E- 4A-X 4c 4e-	.
8AA-L_ 8E-_ [8A-X [8c 8d-X 8f	.
16AA-L_ 16E-_ 16A-] 16c] [16g	.
16AA-JJ_ 16E-_ 16G 16B- 16g]	.
4AA-^_ 4E-_ 4c 4e- [4a-X	.
8AA-L_ 8E-_ 8A-X 8c 8a-]	.
8AA-J] 8E-] 8a-X	.
=59	=59
[8AA-XL [8E- [8G [8d [8e- 8cc	.
8AA-J_ 8E-_ 8G_ 8d_ 8e-_ 8b-	.
8AA-L_ 8E-_ 8G_ 8d_ 8e-_ 8a-X	.
8AA-J_ 8E-_ 8G] 8d] 8e-_ 8b-	.
2AA-] 2E-] 2A-X 2c 2e-] 2cc	.
=60	=60
[4AA-X [4E- 4A-X 4c	.
8.AA-L_ 8.E-_ 8.A-X 8.c 8.d-X	.
16AA-Jk_ 16E-_ 16G 16B-	.
4AA-^_ 4E-_ 4c 4e-	.
8AA-L_ 8E-_ 8A-X 8c [8cc	.
8AA-J] 8E-] 8cc]	.
=61	=61
[4AA-X [4E- 4A-X 4c 4e-	.
8AA-L_ 8E-_ [8A-X [8c 8d-X 8f	.
16AA-L_ 16E-_ 16A-] 16c] [16g	.
16AA-JJ_ 16E-_ 16G 16B- 16g]	.
4AA-^_ 4E-_ 4c 4e- 4a-X	.
8AA-L_ 8E-_ 8A-X 8c 8a-	.
8AA-J] 8E-] 8a-X	.
=62	=62
[8AA-XL [8E- [8G [8d [8e- 8cc	.
8AA-J_ 8E-_ 8G_ 8d_ 8e-_ 8b-	.
8AA-L_ 8E-_ 8G_ 8d_ 8e-_ 8a-X	.
8AA-J_ 8E-_ 8G] 8d] 8e-_ 8b-	.
2AA-] 2E-] 2A-X 2c 2e-] 2cc	.
=63	=63
[4AA-X [4E- 4A-X 4c-X	.
8.AA-L_ 8.E-_ 8.A-X 8.c- 8.d-X	.
16AA-Jk] 16E-] 16G 16B-	.
[2AA-X [2C-X [2F-X [2A-X [2c-X [2f-X	.
=64	=64
4AA-X_ 4C-X_ 4F-X_ 4A-X_ 4c-X_ 4f-X_ 4cc-X	.
8AA-L_ 8C-_ 8F-_ 8A-_ 8c-_ 8f-_ 8cc-	.
8AA-J_ 8C-_ 8F-_ 8A-_ 8c-_ 8f-_ 8cc-X	.
8AA-L_ 8C-_ 8F-_ 8A-_ 8c-_ 8f-_ 8cc-	.
8AA-J_ 8C-_ 8F-_ 8A-_ 8c-_ 8f-_ 8ff-X	.
4AA-_ 4C-_ 4F-_ 4A-_ 4c-_ 4f-_ [4ff-	.
=65	=65
4AA-X_ 4C-X_ 4F-X_ 4A-X_ 4c-X_ 4f-X_ 4ff-X]	.
8AA-L_ 8C-_ 8F-_ 8A-_ 8c-_ 8f-_ 8ff-	.
8AA-J] 8C-] 8F-] 8A-] 8c-] 8f-] 8ee-	.
[4.BB- [4.F-X [4.G-X [4.cn 4.ccn	.
16BB-LL_ 16F-_ 16G-_ 16c_ 16dd-X	.
16BB-JJ_ 16F-_ 16G-_ 16c] 16ee-	.
=66	=66
2BB-;] 2F-X] 2G-X] 2d-X 2dd-X	.
[4GG-X [4En [4B- [4d-X 4b-	.
8GG-L_ 8E_ 8B-_ 8d-_ 8b-	.
8GG-J] 8E] 8B-] 8d-] 8b-	.
=67	=67
[4FF [4F [4B- [4dn 4ff	.
8FFL_ 8F_ 8B-_ 8d_ 8dd	.
8FFJ_ 8F_ 8B-_ 8d_ 8b-	.
8FFL_ 8F_ 8B-_ 8d_ 8f	.
8FFJ_ 8F_ 8B-_ 8d_ 8b-	.
8FFL_ 8F_ 8B-_ 8d_ 8b-	.
8FFJ] 8F] 8B-] 8d] 8dd	.
=68	=68
[2.FF [2.E- [2.F [2.A [2.c 2.ee-	.
4FF] 4E-] 4F] 4A] 4c] 4a	.
=69	=69
[2BB- [2D [2F [2B- 2b-	.
2BB-] 2D] 2F] 2B-]	.
=70	=70
[4GG [4D 4G 4B-	.
8.GGL_ 8.D_ 8.G 8.B- 8.c	.
16GGJk] 16D] 16F#X 16A	.
2GG^ 2E- 2G 2B- 2e-	.
=71	=71
[4AA-X [4E- 4A-X 4c-X	.
8.AA-L_ 8.E-_ 8.A-X 8.c- 8.d-X	.
16AA-Jk] 16E-] 16G 16B-	.
[2AA-X [2C-X [2F-X [2A-X [2c-X [2f-X	.
=72	=72
4AA-X_ 4C-X_ 4F-X_ 4A-X_ 4c-X_ 4f-X_ 4cc-X	.
8AA-L_ 8C-_ 8F-_ 8A-_ 8c-_ 8f-_ 8cc-	.
8AA-J_ 8C-_ 8F-_ 8A-_ 8c-_ 8f-_ 8cc-X	.
8AA-L_ 8C-_ 8F-_ 8A-_ 8c-_ 8f-_ 8cc-	.
8AA-J_ 8C-_ 8F-_ 8A-_ 8c-_ 8f-_ 8ff-X	.
4AA-_ 4C-_ 4F-_ 4A-_ 4c-_ 4f-_ [4ff-	.
=73	=73
4AA-X_ 4C-X_ 4F-X_ 4A-X_ 4c-X_ 4f-X_ 4ff-X]	.
8AA-L_ 8C-_ 8F-_ 8A-_ 8c-_ 8f-_ 8ff-	.
8AA-J] 8C-] 8F-] 8A-] 8c-] 8f-] 8ee-	.
[4.BB- [4.F-X [4.G-X [4.cn 4.ccn	.
16BB-LL_ 16F-_ 16G-_ 16c_ 16dd-X	.
16BB-JJ_ 16F-_ 16G-_ 16c] 16ee-	.
=74	=74
2BB-;] 2F-X] 2G-X] 2d-X 2dd-X	.
[4GG-X [4En [4B- [4d-X 4b-	.
8GG-L_ 8E_ 8B-_ 8d-_ 8b-	.
8GG-J] 8E] 8B-] 8d-] 8b-	.
=75	=75
[4FF [4F [4B- [4dn 4ff	.
8FFL_ 8F_ 8B-_ 8d_ 8dd	.
8FFJ_ 8F_ 8B-_ 8d_ 8b-	.
8FFL_ 8F_ 8B-_ 8d_ 8f	.
8FFJ_ 8F_ 8B-_ 8d_ 8b-	.
8FFL_ 8F_ 8B-_ 8d_ 8b-	.
8FFJ] 8F] 8B-] 8d] 8dd	.
=76	=76
[2.FF [2.E- [2.F [2.A [2.c 2.ee-	.
4FF] 4E-] 4F] 4A] 4c] 4a	.
=77	=77
[2BBB- [2BB- [2D [2F [2B- 2b-	.
2BBB-] 2BB-] 2D] 2F] 2B-]	.
=78	=78
[4BB- [4F 4B- 4d	.
8.BB-L_ 8.F_ 8.B- 8.d 8.e-	.
16BB-Jk_ 16F_ 16A 16c	.
4BB-^_ 4F_ 4d 4f	.
8BB-L_ 8F_ 8B- 8d	.
8BB-J] 8F]	.
=79	=79
[4BB- [4F 4B- 4d-X	.
8.BB-L_ 8.F_ 8.B- 8.d- 8.e-	.
16BB-Jk_ 16F_ 16A 16c	.
4BB-^_ 4F_ 4d-X 4f	.
8BB-L_ 8F_ 8B- 8d-X	.
8BB-J] 8F]	.
=80	=80
[4FF 4F [4B- 4dn	.
12FFL_ 12F 12B-_ 12d	.
12FF_ 12G 12B-_ 12e-	.
12FFJ] 12F 12B-] 12d	.
[4FF 4E- [4A 4c	.
12FFL_ 12E- 12A_ 12c	.
12FF_ 12F 12A_ 12d	.
12FFJ] 12E- 12A] 12c	.
=81	=81
2FF 2E- 2F 2A 2c	.
4BBB- 4D 4F 4B-	.
4r	.
==	==
*-	*-
!!!YEM: OpenScore (CC0)
